src/assets/icons/science-history,simple,rocket.svg

<svg width="48" height="48" viewBox="0 0 48 48" fill="none" xmlns="http://www.w3.org/2000/svg">
<g clip-path="url(#clip0_47:622)">
<rect opacity="0.2" x="5" y="5" width="38" height="38" rx="4" fill="black"/>
<rect opacity="0.2" x="15.7275" y="21.2061" width="16" height="2" transform="rotate(45 15.7275 21.2061)" fill="black"/>
<path opacity="0.2" d="M19.7133 17.2212C23.5233 13.4113 28.599 11.132 33.9778 10.8156L35.4025 10.7317C36.598 10.6614 37.5869 11.6503 37.5165 12.8457L37.4327 14.2705C37.1163 19.6493 34.837 24.725 31.027 28.5349L23.5065 36.0555C22.7255 36.8365 21.4591 36.8365 20.6781 36.0555L12.1928 27.5702C11.4118 26.7891 11.4118 25.5228 12.1928 24.7418L19.7133 17.2212Z" fill="black"/>
<g opacity="0.6">
<path d="M26.7961 12.4748C24.1697 13.5711 21.7591 15.1755 19.7134 17.2212L15.7284 21.2061L27.0421 32.5198L31.0271 28.5349C33.0728 26.4892 34.6772 24.0786 35.7734 21.4521L26.7961 12.4748Z" fill="black"/>
<path d="M14.3142 22.6203L25.6279 33.9341L23.5066 36.0554C22.7256 36.8364 21.4592 36.8364 20.6782 36.0554L12.1929 27.5701C11.4119 26.789 11.4119 25.5227 12.1929 24.7417L14.3142 22.6203Z" fill="black"/>
</g>
<path d="M28.876 11.7265C30.5228 11.2263 32.2341 10.9176 33.9773 10.8151L35.4021 10.7313C36.5975 10.661 37.5864 11.6498 37.5161 12.8453L37.4323 14.27C37.3297 16.0132 37.021 17.7246 36.5209 19.3713L28.876 11.7265Z" fill="black"/>
<path d="M29.6225 37.5765L30.5771 28.9844L23.5061 36.0554L26.2205 38.7698C27.4063 39.9557 29.4373 39.2433 29.6225 37.5765Z" fill="black"/>
<path d="M10.6715 18.6246L19.2637 17.6699L12.1926 24.741L9.4782 22.0266C8.29237 20.8408 9.00479 18.8098 10.6715 18.6246Z" fill="black"/>
<path d="M11.3831 28.5076L13.2925 28.6694L19.5779 34.9548L19.7397 36.8642C19.8184 37.7931 18.6954 38.3149 18.0361 37.6557L10.5916 30.2112C9.93236 29.5519 10.4542 28.4289 11.3831 28.5076Z" fill="black"/>
</g>
<defs>
<clipPath id="clip0_47:622">
<rect width="48" height="48" fill="white"/>
</clipPath>
</defs>
</svg>

<svg xmlns="http://www.w3.org/2000/svg" width="48" height="48" fill="none" viewBox="0 0 48 48">
  <g clip-path="url(#clip0_47:622)">
    <rect width="38" height="38" x="5" y="5" fill="#000" opacity=".2" rx="4"/>
    <path fill="#000" d="M15.727 21.206l11.314 11.313-1.414 1.415L14.313 22.62z" opacity=".2"/>
    <path fill="#000" d="M19.713 17.221a22 22 0 0114.265-6.405l1.425-.084a2 2 0 012.114 2.114l-.084 1.425a22 22 0 01-6.406 14.264l-7.52 7.52a2 2 0 01-2.829 0l-8.485-8.485a2 2 0 010-2.828l7.52-7.52z" opacity=".2"/>
    <g opacity=".6">
      <path fill="#000" d="M26.796 12.475a22 22 0 00-7.083 4.746l-3.985 3.985L27.042 32.52l3.985-3.985a21.997 21.997 0 004.746-7.083l-8.977-8.977zM14.314 22.62l11.314 11.314-2.121 2.121a2 2 0 01-2.829 0l-8.485-8.485a2 2 0 010-2.828l2.121-2.122z"/>
    </g>
    <path fill="#000" d="M28.876 11.726c1.647-.5 3.358-.808 5.101-.91l1.425-.085a2 2 0 012.114 2.114l-.084 1.425a22 22 0 01-.911 5.101l-7.645-7.644zM29.622 37.577l.955-8.593-7.07 7.071 2.713 2.715c1.186 1.186 3.217.473 3.402-1.194zM10.671 18.625l8.593-.955-7.071 7.071-2.715-2.714c-1.186-1.186-.473-3.217 1.194-3.402zM11.383 28.508l1.91.161 6.285 6.286.162 1.91c.078.928-1.045 1.45-1.704.79l-7.444-7.444c-.66-.66-.138-1.782.791-1.703z"/>
  </g>
  <defs>
    <clipPath id="clip0_47:622">
      <path fill="#fff" d="M0 0h48v48H0z"/>
    </clipPath>
  </defs>
</svg>
